X:1
T:Title
L:1/8
M:4/4
I:linebreak $
K:G
V:1 treble nm="Voice"
V:1
"Am" cded cAGE |"G" PG2 GF GAcd |"Am" ecgc acgc | eaag edcA |"Am" cded cAGE |"G" PG2 GF GAcd | %6
"Am" eaag (3efg ed | cABG A2 AB ::"Am" cdef"G" Pg2 ef | gfgd BGGA | B/c/def g2 fg |"Am" eaag aged | %12
"Am" cdef"G" g3 e |"D" Pa3 f"G" Pg3 e |"Dm" P=f3 d"Em" e^fed |"Am" cABG A2 AB :| %16
